!!!OTL: 71d. Graserin und Reiter.
!!!ODT: 1890
!!!ARE: Europa, Mitteleuropa, Deutschland, Marburg
!!!SCT: E0071C
!!!TXL: @@DE
!!!YEM: Copyright 1995, estate of Helmut Schaffrath.
**kern	**text
*ICvox	*
*M2/4	*
*k[f#]	*
*G:	*
!LO:TX:a:t=Aus der Gegend von Marburg, 1890.	!
{8d	Es
=1	=1
8g	gieng
8g	ein
8b	wack-
8dd	-res
=2	=2
8gL	Mäd-
8bJ	.
8b}	-chen
{8dd	früh-
=3	=3
8dd	-mor-
8cc	-gens
8cc	in
8b	das
=4	=4
8bL	Gras,
8aJ	.
8r}	.
{8dd	da
=5	=5
8dd	ritt
8ee	ihr
8cc	al-
8a	-le
=6	=6
8gL	Mor-
8bJ	.
8b}	-gen,
{8b	ein
=7	=7
8b/	ſtol-
8a	-ʒer
8a	Rei-
16bL	-ter
16ccJ	.
=8	=8
8ee	nach,
8dd	juch-
8dd}	-he!
{8dd	da
=9	=9
8dd	ritt
8ee	ihr
8cc	al-
8a	-le
=10	=10
8gL	Mor-
8bJ	.
8b}	-gen
{8b	ein
=11	=11
8dd	ſtol-
8dd	-ʒer
8ee	Rei-
8dd	-ter
=12	=12
4.b}	nach.
==	==
!!!AGN: erzaehlendes Volks - Lied, Sage, Liebe, Ballade ?
!!!ONB: ESAC (Essen Associative Code) Database: ERK1
!!!AMT: simple duple
!!!AIN: vox
!!!EED: Helmut Schaffrath
!!!EEV: 1.0
!!!GTL: Liebesgeschichten mit gluecklichem Ausgange
!!!URL-scan: https://rosdok.uni-rostock.de/mcrviewer/recordIdentifier/rosdok_ppn745146120/iview2/phys_0319.iview2?x=-495.6391625615772&y=1269.3898829494137&scale=0.46294184720638515&rotation=0&layout=singlePageLayout&logicalDiv=log_0009
!!!ENC: Anna Maria Matuszewska
!!!EEV: 2024/11/26
*-	*-
